svg/transport/rear_windshield_defroster_fill.svg

<?xml version="1.0" encoding="UTF-8"?>
<svg width="24px" height="24px" viewBox="0 0 24 24" version="1.1" xmlns="http://www.w3.org/2000/svg" xmlns:xlink="http://www.w3.org/1999/xlink">
    <title>rear_windshield_defroster_fill</title>
    <g id="页面-1" stroke="none" stroke-width="1" fill="none" fill-rule="evenodd">
        <g id="Transport" transform="translate(-288.000000, -240.000000)" fill-rule="nonzero">
            <g id="rear_windshield_defroster_fill" transform="translate(288.000000, 240.000000)">
                 <path d="M24,0 L24,24 L0,24 L0,0 L24,0 Z M12.5934901,23.257841 L12.5819402,23.2595131 L12.5108777,23.2950439 L12.4918791,23.2987469 L12.4918791,23.2987469 L12.4767152,23.2950439 L12.4056548,23.2595131 C12.3958229,23.2563662 12.3870493,23.2590235 12.3821421,23.2649074 L12.3780323,23.275831 L12.360941,23.7031097 L12.3658947,23.7234994 L12.3769048,23.7357139 L12.4804777,23.8096931 L12.4953491,23.8136134 L12.4953491,23.8136134 L12.5071152,23.8096931 L12.6106902,23.7357139 L12.6232938,23.7196733 L12.6232938,23.7196733 L12.6266527,23.7031097 L12.609561,23.275831 C12.6075724,23.2657013 12.6010112,23.2592993 12.5934901,23.257841 L12.5934901,23.257841 Z M12.8583906,23.1452862 L12.8445485,23.1473072 L12.6598443,23.2396597 L12.6498822,23.2499052 L12.6498822,23.2499052 L12.6471943,23.2611114 L12.6650943,23.6906389 L12.6699349,23.7034178 L12.6699349,23.7034178 L12.678386,23.7104931 L12.8793402,23.8032389 C12.8914285,23.8068999 12.9022333,23.8029875 12.9078286,23.7952264 L12.9118235,23.7811639 L12.8776777,23.1665331 C12.8752882,23.1545897 12.8674102,23.1470016 12.8583906,23.1452862 L12.8583906,23.1452862 Z M12.1430473,23.1473072 C12.1332178,23.1423925 12.1221763,23.1452606 12.1156365,23.1525954 L12.1099173,23.1665331 L12.0757714,23.7811639 C12.0751323,23.7926639 12.0828099,23.8018602 12.0926481,23.8045676 L12.108256,23.8032389 L12.3092106,23.7104931 L12.3186497,23.7024347 L12.3186497,23.7024347 L12.3225043,23.6906389 L12.340401,23.2611114 L12.337245,23.2485176 L12.337245,23.2485176 L12.3277531,23.2396597 L12.1430473,23.1473072 Z" id="MingCute" fill-rule="nonzero"></path>
                <path d="M2,7 C2,5.34315 3.34315,4 5,4 L19,4 C20.6569,4 22,5.34315 22,7 L22,14 C22,15.6569 20.6569,17 19,17 L15.8604,17 C16.0652,18.1452 15.7891,19.3645 15.014,20.3334 L14.7809,20.6247 C14.4359,21.056 13.8066,21.1259 13.3753,20.7809 C12.9441,20.4359 12.8742,19.8066 13.2192,19.3753 L13.4523,19.084 C13.9358,18.4796 14.0453,17.6876 13.7972,17 L15.8604,17 C15.7153,16.1887 15.3286,15.4145 14.707,14.7929 C13.9288,14.0146 13.8601,12.7756 14.5477,11.9161 L14.7808,11.6247 C15.1258,11.1935 15.0559,10.5642 14.6246,10.2192 C14.1934,9.87416 13.5641,9.94408 13.2191,10.3753 L12.986,10.6667 C11.6618,12.322 11.7939,14.7082 13.2928,16.2071 C13.5239,16.4382 13.6924,16.7098 13.7972,17 L11.8604,17 C12.0652,18.1452 11.7891,19.3645 11.014,20.3334 L10.7809,20.6247 C10.4359,21.056 9.8066,21.1259 9.37534,20.7809 C8.94408,20.4359 8.87416,19.8066 9.21917,19.3753 L9.45226,19.084 C9.93576,18.4796 10.0453,17.6876 9.79719,17 L11.8604,17 C11.7153,16.1887 11.3286,15.4145 10.707,14.7929 C9.92875,14.0146 9.86013,12.7756 10.5477,11.9161 L10.7808,11.6247 C11.1258,11.1935 11.0559,10.5642 10.6246,10.2192 C10.1934,9.87416 9.56408,9.94408 9.21907,10.3753 L8.98598,10.6667 C7.66176,12.322 7.79393,14.7082 9.29284,16.2071 C9.52385,16.4382 9.69244,16.7098 9.79719,17 L5,17 C3.34315,17 2,15.6569 2,14 L2,7 Z" id="路径" fill="#09244B"></path>
            </g>
        </g>
    </g>
</svg>

<svg xmlns="http://www.w3.org/2000/svg" width="24" height="24"><g fill="none" fill-rule="nonzero"><path d="M24 0v24H0V0h24ZM12.593 23.258l-.011.002-.071.035-.02.004-.014-.004-.071-.035c-.01-.004-.019-.001-.024.005l-.004.01-.017.428.005.02.01.013.104.074.015.004.012-.004.104-.074.012-.016.004-.017-.017-.427c-.002-.01-.009-.017-.017-.018Zm.265-.113-.013.002-.185.093-.01.01-.003.011.018.43.005.012.008.007.201.093c.012.004.023 0 .029-.008l.004-.014-.034-.614c-.003-.012-.01-.02-.02-.022Zm-.715.002a.023.023 0 0 0-.027.006l-.006.014-.034.614c0 .012.007.02.017.024l.015-.002.201-.093.01-.008.004-.011.017-.43-.003-.012-.01-.01-.184-.092Z"/><path fill="#09244B" d="M2 7a3 3 0 0 1 3-3h14a3 3 0 0 1 3 3v7a3 3 0 0 1-3 3h-3.14a4.155 4.155 0 0 1-.846 3.333l-.233.292a1 1 0 1 1-1.562-1.25l.233-.291A2.16 2.16 0 0 0 13.797 17h2.063a4.147 4.147 0 0 0-1.153-2.207 2.16 2.16 0 0 1-.16-2.877l.234-.291a1 1 0 1 0-1.562-1.25l-.233.292a4.16 4.16 0 0 0 .307 5.54c.23.231.4.503.504.793H11.86a4.155 4.155 0 0 1-.846 3.333l-.233.292a1 1 0 1 1-1.562-1.25l.233-.291A2.16 2.16 0 0 0 9.797 17h2.063a4.147 4.147 0 0 0-1.153-2.207 2.16 2.16 0 0 1-.16-2.877l.234-.291a1 1 0 1 0-1.562-1.25l-.233.292a4.16 4.16 0 0 0 .307 5.54c.23.231.4.503.504.793H5a3 3 0 0 1-3-3V7Z"/></g></svg>
